!!!COM: Music21
!!!OTL: strathspey_Is-It-A-Jig-Yet
!!!OMV: strathspey_Is-It-A-Jig-Yet
**kern
*clefG2
*k[f#c#]
*b:
*M4/4
=1
16ff#KL
8.bJ
8bL
8aJ
16f#KL
8.bJ
8bL
8aJ
=
16ff#KL
8.bJ
8bL
8aJ
16ff#KL
8.bbJ
12aaL
12ff#
12eeJ
=
16ff#KL
8.bJ
8bL
8aJ
16f#KL
8.bJ
8bL
8ddJ
=
16cc#KL
8.aJ
8cc#L
8eeJ
4aa
12aaL
12ff#
12eeJ
!!linebreak:original
=
16ff#KL
8.bJ
8bL
8aJ
16f#KL
8.bJ
8bL
8aJ
=
16ff#KL
8.bJ
8bL
8aJ
16ff#KL
8.bbJ
12aaL
12ff#
12eeJ
=
16ff#KL
8.bbJ
16ff#KL
8.aaJ
16ff#KL
8.eeJ
16cc#KL
8.eeJ
=
16ff#KL
8.bJ
8bL
8aJ
2b
!!linebreak:original
=||
16bKL
8.bbJ
8.bL
16bbJk
16aaKL
8.aaJ
8.bL
16ff#Jk
=
8.ff#L
16eeJk
8.ff#L
16gg#XJk
8.aaL
16ff#Jk
16eeKL
8.cc#J
=
16bKL
8.bbJ
8.bL
16bbJk
16aaKL
8.aaJ
8.bL
16ff#Jk
=
8.ff#L
16eeJk
16ff#KL
8.gg#XJ
4aa
16aaKL
8.ff#J
!!linebreak:original
=
16bKL
8.bbJ
8.bL
16bbJk
16aaKL
8.aaJ
8.bL
16ff#Jk
=
8.ff#L
16eeJk
8.ff#L
16gg#XJk
8.aaL
16ff#Jk
16eeKL
8.cc#J
=
16ff#KL
8.bJ
8bL
8aJ
16f#KL
8.eJ
8f#L
8aJ
=
12bL
12cc#
12ddJ
8.cc#L
16aJk
2b
=||
*-
